X:1
T:Sonntag
T:Ferdinand Hiller
T:Rudolf Löwenstein
T:Sonntag
T:CPDL - Creative Commons Attribution Non Commercial 3.0
T:CPDL - Creative Commons Attribution Non Commercial 3.0
T:CPDL - Creative Commons Attribution Non Commercial 3.0
C:Ferdinand Hiller
Z:Rudolf Löwenstein
Z:CPDL - Creative Commons Attribution Non Commercial 3.0
%%score [ ( 1 2 ) ( 3 4 ) ]
L:1/8
Q:1/4=84
M:3/8
K:F
V:1 treble nm="Sopran\nAlt"
V:2 treble 
V:3 bass nm="Tenor\nBass"
V:4 bass 
V:1
"^Ziemlich langsam""^dolce" G | AcG | AcG | Acf | !breath!c2!p! A | AAA | ccc | A3 | %8
w: Es|tö- * net|ü- ber das|wei- * te|Feld ein|lieb- li- ches|Glo- cken- ge-|läu-|
 B z"^dolce" G | AcG | AcG | Acf | !breath!c2 c |!<(! eee!<)! | edc | (c3 | =B3) | c z z | z3 | %19
w: te; wie|ist * so|ru- * hig|heut' * die|Welt, so|son- nig und|won- * nig|heu-||te.||
 z3 | z3 | z2!p! G | G2 G | BBB | E3 | F z z | z3 | z3 | z3 | z2!p! A |!<(! ^GA!<)!=B | %31
w: ||die|Her- den|ruh'n auf der|Wei-|de;||||im|statt- li- chen|
!>(! c=BA!>)! |!>(! (!^!E3 | E3)!>)! | C z z | z2"^dolce" G | AcG | AcG | Acf | !breath!c2 A | %40
w: Sonn- * tags-|klei-||de.|Es|ist, _ als|sän- gen die|Vö- * gel|auch heut'|
!pp! AAA | ccc | A3 | B z"^dolce" G | AcG | AcG | Acf | !breath!c2!<(! c | eee!<)! |!>(! edc!>)! | %50
w: schö- ner als|an- de- re|Ta-|ge, als|duf- te- ten|heut' * mit|stär- ke- rem|Hauch die|Blu- men im|Feld * und|
 (c3 | =B3) | c z!f! G | G2 G | _A2 E | F_E_D | !breath!C2!p! G | G2 G | GGG |!>(! A3- | A3!>)! | %61
w: Ha-||ge. Und|Or- gel-|klän- ge|tö- nen von|fern, von|Mor- gen-|lüf- ten ge-|ho-||
 G z!<(! C | CDE | FGA!<)! |!f! =BAG | !breath!c2 c | d=BG | !breath!e2!ff! c | d=BG | g3- | %70
w: ben, und|al- * les|be- tet: "Wir|lo- ben den|Herrn, wir|lo- ben den|Herrn, wir|lo- ben den|Herrn,|
 g z!f! c | f3 | A2 B | (c3 | F2) B | G3- | G3 | A z"^dolce" F | FGA |!<(! Bc!<)!d |!>(! B3!>)! | %81
w: _ und|wol-|len ihn|e-|* wig|lo-||ben, und|wol- len ihn|e- * wig|lo-|
 A z F | FGA |!<(! Bcd!<)! |!<(! (G3!<)! |!>(! c3)!>)! | F2 !fermata!z |] %87
w: ben, und|wol- len ihn|e- * wig|lo-||ben."|
V:2
 E | FAE | FAG | FAB | A2 F | FFF | EEE | F3 | G x E | FAE | FAE | FAB | A2 A | AAA | A2 A | (G3 | %16
 F3) | E x x | x3 | x3 | x3 | x2 E | E2 E | DDD | ^C3 | D x x | x3 | x3 | x3 | x2 F | FFF | E2 ^D | %32
 (E3 | D3) | C x x | x2 E | FAE | FAG | FAB | A2 F | FFF | EEE | F3 | G x E | FAE | FAG | FAB | %47
 A2 A | AAA | A2 A | (G3 | F3) | E x G | G2 G | _A2 E | F_E_D | C2 =E | F2 F | FFF | F3- | F3 | %61
 E x C | CDE | FGA | =BAG | c2 E | FFF | E2 E | FFG | _B3- | B x B | A3 | F2 F | (F3 | F2) F | %75
 (F3 | E3) | F x F | FGA | Bcd | (D2 E) | F x F | FGA | Bcd | E3- | E3 | F2 x |] %87
V:3
"^dolce" C | C3- | C2 C | C2 D | !breath!C2!p! C | DDD | CCC | D3 | B, z"^dolce" C | C3- | C2 C | %11
w: |tö-|* net|ü- bers|Feld *|||||ru-|* hig|
 C2 D | !breath!C2 C |!<(! CCC!<)! | CDE | (E3 | D3) | C z!mp! z | z3 | z3 | z3 | z2!p! C | C2 C | %23
w: ist die|Welt, *|||||||||||
 B,B,B, | A,3 | A, z!mp! A, | DCB, | A,G,F, | F,2 D | !breath!C2!p! C |!<(! DD!<)!D | %31
w: ||* die|Bau- * ern|zie- hen zur|Kir- che|nun *||
!>(! C2 C!>)! |!>(! (!^!C3 | =B,3)!>)! | A, z"^Es"!p!"^dolce" C |"^ist ________"!<(! C3-!<)! | %36
w: |||||
 C2 C | CCC | C2 D | !breath!C2 C |!pp! DDD | CCC | D3 | D z"^dolce" C | CCC | C2 C | CCD | %47
w: |||||||||||
 !breath!C2!<(! C | CCC!<)! |!>(! CDE!>)! | (E3 | D3) | C z!f! G, | G,2 G, | _A,2 E, | F,_E,_D, | %56
w: |||||||||
 !breath!C,2!p! G, | G,2 A, | =B,A,G, |!>(! (A,3 | =B,3)!>)! | C z!<(! C, | C,D,E, | F,G,A,!<)! | %64
w: ||||||||
!f! =B,A,G, | !breath!C2 C | =B,DB, | !breath!C2!ff! C | =B,DB, | C3- | C z!f! E | D3 | E2 D | %73
w: |||||||||
 (C3 | D3) | (C3 | B,3) | A, z"^dolce" F, | F,G,A, |!<(! B,C!<)!D |!>(! B,3!>)! | A, z F, | %82
w: |||||||||
 F,G,A, |!<(! B,CD!<)! |!<(! B,3-!<)! |!>(! B,3!>)! | A,2 !fermata!z |] %87
w: |||||
V:4
 C, | F,2 C, | F,C,E, | F,2 F, | F,2 F, | D,D,D, | A,A,A, | D,3 | G, x C, | F,2 C, | F,2 C, | %11
w: Es|tö- net|ü- ber das|wei- te|Feld *||||* wie|ist so|ru- hig|
 F,2 F, | F,2 F, | E,E,E, | F,2 F, | G,3- | G,3 | C, x G, | G,E,C, | CG,A, | G,2 F, | E,2 E, | %22
w: heut' die|Welt, *|||||* Die|Hir- * ten|ne- ben der|Her- de|ruh'n, *|
 E,2 E, | G,G,G, | A,3 | D, z z | x3 | x3 | x3 | z2 C | =B,A,^G, | A,=G,F, | E,3- | E,3 | A,, x z | %35
w: |||||||||||||
 z2"^dolce" C, | F,2 C, | F,C,E, | F,2 F, | F,2 F, | D,D,D, | A,A,A, | D,3 | G, x C, | F,F,C, | %45
w: ||||||||||
 F,C,E, | F,F,F, | F,2 F, | E,E,E, | F,2 F, | G,3- | G,3 | C, x G, | G,2 G, | _A,2 E, | F,_E,_D, | %56
w: |||||||||||
 C,2 C, | =B,,2 C, | D,C,=B,, | (C,3 | D,3) | E, x C, | C,D,E, | F,G,A, | =B,A,G, | C2 A, | %66
w: ||||||||||
 G,G,G, | G,2 A, | G,G,F, | E,3- | E, x C | D3 | C2 B, | (A,3 | B,2) G, | C,3- | C,3 | F, x F, | %78
w: ||||||||||||
 F,G,A, | B,CD | G,3 | F, x F, | F,G,A, | B,CD | C,3- | C,3 | F,2 x |] %87
w: |||||||||

